X:2965
T:Kes\"aillalla
T:A summer evening
C:anon.
O:Finland
Z:Transcribed by Frank Nordberg - http://www.musicaviva.com
F:http://abc.musicaviva.com/tunes/finland/kesaillalla.abc
M:C
L:1/4
Q:1/4=163
K:Bb
D/E/|FFDF/F/|BBBA/B/|ccAA|G2 z C/D/|
w:Kun_ k\"a-ve-lin ke-s\"a-il-lal-la, n\"a-in nii-tyn vi-her-j\"an, Ja_
EE/E/CE|G2GA/A/|FF/F/EE/E/|D2 z D/E/|
w:lin-tu-jen \"a\"a-nen hil-jaa kuu-lin met-s\"as-s\"a vi-ser-t\"a-v\"an. Lal-la-
FF/F/DF|d3c/c/|BB/B/AA|G2 z C/D/|
w:lal-la-la lal-lal-lei, lal-la-lal-la-la lal-lal-lei. Ja_
EE/E/CE|G2GA/A/|FF/F/EE/E/|D2 z|]
w:lin-tu-jen \"a\"a-nen hil-jaa kuu-lin met-s\"as-s\"a vi-ser-t\"a-v\"an.
W:
W:Kun k\"avelin kes\"aillalla,
W:n\"ain niityn viherj\"an,
W:Ja lintujen \"a\"anen hiljaa
W:kuulin mets\"ass\"a visert\"av\"an.
W:  Lallalallala lallallei,
W:Lallalallala lallallei.
W:Ja lintujen \"a\"anen hiljaa
W:kuulin mets\"ass\"a visert\"av\"an.
W:
W:Ne onnea mulle muistutti,
W:mink\"a muinoin omistin,
W:Kun lehdossa kahdenkesken
W:kanssa kultani kujertelin.
W:  Lallalallala lallallei,
W:Lallalallala lallallei.
W:Kun lehdossa kahdenkesken
W:kanssa kultani kujertelin.
W:
W:
W:  From Musica Viva - http://www.musicaviva.com
W:  the Internet center for free sheet music downloads.


